X: 21298
T: Kelso Bowling Green
R: jig
M: 6/8
K: Dmajor
|:F|D2A AFA|D2D D2A,|D2A AFA|E2E E2F|
D2A AFA|BGB AFA|GBG FAF|E2E E2A|
Bcd AFA|D2D D2A|Bcd AFA|BAE E2A|
[1Bcd AFA|Bcd AFA|GBG FAF|E2E E2:|
[2 DA,D EDE|FEF G3|Bcd AGF|E2E E2||

